public/images/landing-page/htd-down.svg

<svg width="52" height="71" viewBox="0 0 52 71" fill="none" xmlns="http://www.w3.org/2000/svg">
<g clip-path="url(#clip0_50_1784)">
<path d="M26.468 33.7581C28.7336 34.372 30.9718 34.34 33.2366 33.827C35.1462 33.3919 35.1207 33.2033 35.7545 35.3746C36.7322 38.7139 37.3497 41.8865 36.6988 45.307C36.2382 47.736 35.269 49.9107 33.13 51.3739C30.8087 52.9627 24.9108 54.5031 22.1434 53.7049C23.6905 51.7169 24.4824 48.9151 25.3433 46.5784C25.9997 44.796 27.5594 39.8949 23.665 41.6233C21.0509 42.7867 19.6786 47.2742 18.2187 49.5488C17.4617 50.737 16.694 51.938 15.7678 52.9958C14.8538 54.0336 13.4865 54.7765 13.2858 56.2452C12.944 58.7245 16.7216 60.8596 18.2504 62.4075C19.8292 64.0049 22.9442 68.6138 25.6646 68.0536C32.0722 66.7297 21.2532 58.6615 21.6843 58.0224C22.2192 57.2322 27.5166 58.4616 28.6807 58.4331C31.8564 58.3585 35.0938 57.3846 37.616 55.4235C42.5105 51.6189 43.5503 44.7174 42.6783 38.9586C42.4384 37.373 42.0339 35.8027 41.5523 34.2679C41.1691 33.0375 40.127 31.3735 40.1143 30.0991C40.0984 28.9383 40.9554 27.9482 41.435 26.9321C42.2014 25.3045 42.4956 23.7964 42.543 21.9953C42.6856 16.1584 40.3642 9.83682 35.8091 5.95408C34.8232 5.11001 33.2222 3.94136 31.8123 4.27092C31.0587 4.44732 29.6097 5.54443 30.3544 6.37093C30.5618 6.6015 32.0978 6.32384 32.5582 6.52138C33.7585 7.03423 34.786 8.69492 35.4336 9.74266C37.5864 13.2388 40.8327 21.4334 37.6558 25.1697C37.9603 24.8136 33.4852 19.5865 32.994 19.024C31.4407 17.2497 29.7352 15.4707 27.7986 14.0952C24.1092 11.478 18.6091 9.16643 14.2431 11.4104C3.62662 16.8568 19.4795 32.7477 26.468 33.7581C25.1109 33.5593 28.8265 34.401 26.468 33.7581ZM15.5617 16.4957C15.5909 12.414 24.6963 18.3055 25.6548 19.1357C27.0869 20.3719 33.9278 26.9745 33.0018 29.2277C32.5698 30.27 28.114 29.6459 27.1638 29.4115C25.3362 28.9595 23.4369 27.821 21.9295 26.712C19.9698 25.2703 13.9365 19.288 15.5528 16.5012C15.5594 15.7414 15.1342 17.2193 15.5528 16.5012L15.5617 16.4957Z" fill="#AF4ADC"/>
</g>
<defs>
<clipPath id="clip0_50_1784">
<rect width="38" height="64" fill="white" transform="matrix(-0.974419 -0.224739 -0.224739 0.974419 51.4113 8.54004)"/>
</clipPath>
</defs>
</svg>

<svg xmlns="http://www.w3.org/2000/svg" width="52" height="71" fill="none"><g clip-path="url(#a)"><path fill="#AF4ADC" d="M26.468 33.758c2.266.614 4.504.582 6.769.069 1.91-.435 1.884-.624 2.517 1.548.978 3.339 1.596 6.511.945 9.932-.46 2.429-1.43 4.604-3.569 6.067-2.321 1.589-8.22 3.13-10.987 2.33 1.547-1.987 2.34-4.789 3.2-7.126.657-1.782 2.216-6.683-1.678-4.955-2.614 1.164-3.986 5.651-5.446 7.926-.757 1.188-1.525 2.389-2.451 3.447-.914 1.038-2.282 1.78-2.482 3.25-.342 2.478 3.436 4.614 4.964 6.161 1.58 1.598 4.694 6.207 7.415 5.647 6.407-1.324-4.412-9.393-3.98-10.032.534-.79 5.832.44 6.996.411 3.175-.075 6.413-1.048 8.935-3.01 4.895-3.804 5.934-10.706 5.062-16.464-.24-1.586-.644-3.156-1.126-4.691-.383-1.23-1.425-2.895-1.438-4.169-.016-1.16.841-2.15 1.321-3.167.766-1.627 1.06-3.136 1.108-4.937.143-5.837-2.179-12.158-6.734-16.04-.986-.845-2.587-2.014-3.997-1.684-.753.176-2.202 1.273-1.458 2.1.208.23 1.744-.047 2.204.15 1.2.513 2.228 2.174 2.876 3.222 2.152 3.496 5.399 11.69 2.222 15.427.304-.356-4.17-5.584-4.662-6.146-1.553-1.774-3.259-3.553-5.195-4.929-3.69-2.617-9.19-4.929-13.556-2.685-10.616 5.447 5.237 21.338 12.225 22.348-1.357-.199 2.358.643 0 0ZM15.562 16.496c.029-4.082 9.134 1.81 10.093 2.64 1.432 1.236 8.273 7.838 7.347 10.092-.432 1.042-4.888.418-5.838.183-1.828-.452-3.727-1.59-5.235-2.699-1.96-1.442-7.992-7.424-6.376-10.21.006-.76-.419.717 0 0l.009-.006Z"/></g><defs><clipPath id="a"><path fill="#fff" d="M51.411 8.54 14.383 0 0 62.363l37.028 8.54z"/></clipPath></defs></svg>
